X:044 
T:Diving Duck* (polka), The
F:file ID: cre.5/044div_d
B:CRE5.089 (gan ainm) - repeats added
M:2/4
L:1/16
%%Q:120
R:polka
K:G
GA|B2g2 B2BA|B2g2 B2AG|FGAB cBcd|edce d2dc|
B2g2 B2BA|B2g2 B2AG|FGAB c2f2|edcA G2:|
GA|B2A2 B2A2|cBce dBGB|A2F2 A2F2|Ggge dBGA|
B2A2 B2A2|cBce dBGB|A2G2 A2f2|edcA G2:|
"last time"edcA HG4||

%%%

